src/24x24/places/folder-gruvbox-original-purple-publicshare-open.svg

<?xml version="1.0" encoding="UTF-8"?>
<svg width="24" height="24" version="1" xmlns="http://www.w3.org/2000/svg">
 <rect x="2" y="9.5" width="20" height="12" rx="1" ry="1" opacity=".2"/>
 <path d="m2 17c0 0.554 0.446 1 1 1h18c0.554 0 1-0.446 1-1v-11c0-0.554-0.446-1-1-1h-9c-1.5 0-2-2-3.5-2h-5.5c-0.554 0-1 0.446-1 1" fill="#8f3f71"/>
 <rect x="2" y="10.5" width="20" height="10" rx="1" ry="1" opacity=".2"/>
 <rect x="4" y="7" width="16" height="8" rx="1" ry="1" fill="#E1D4B6"/>
 <rect x="2" y="11" width="20" height="10" rx="1" ry="1" fill="#d3869b"/>
 <path d="m3 3c-0.554 0-1 0.446-1 1v0.5c0-0.554 0.446-1 1-1h5.5c1.5 0 2 2 3.5 2h9c0.554 0 1 0.446 1 1v-0.5c0-0.554-0.446-1-1-1h-9c-1.5 0-2-2-3.5-2z" fill="#E1D4B6" opacity=".1"/>
 <path d="m12 13a2 2 0 0 0-2.0001 2 2 2 0 0 0 2.0001 2 2 2 0 0 0 2-2 2 2 0 0 0-2-2zm-1.693 4.062c-1.2639 0.216-2.1803 0.652-2.2954 1.174-0.0017 6e-3 0.0012 0.013 0 0.018-4e-3 0.02-0.0041 0.038-0.0058 0.058-6e-4 0.01-0.0059 0.016-0.0059 0.026-1e-4 3e-3 0 3e-3 0 6e-3v1.388c0 0.149 0.0884 0.268 0.1992 0.268h7.6019c0.111 0 0.199-0.119 0.199-0.268v-1.404c-1e-3 -0.032-0.012-0.06-0.02-0.092-0.115-0.521-1.029-0.958-2.289-1.174a2 2 0 0 1-1.691 0.938 2 2 0 0 1-1.693-0.938z" fill="#393534"/>
</svg>

<svg xmlns="http://www.w3.org/2000/svg" width="24" height="24" version="1">
 <rect style="opacity:0.2" width="20" height="12" x="2" y="9.5" rx="1" ry="1"/>
 <path style="fill:#8f3f71" d="M 2,17 C 2,17.554 2.446,18 3,18 H 21 C 21.554,18 22,17.554 22,17 V 6 C 22,5.446 21.554,5 21,5 H 12 C 10.5,5 10,3 8.5,3 H 3 C 2.446,3 2,3.446 2,4"/>
 <rect style="opacity:0.2" width="20" height="10" x="2" y="10.5" rx="1" ry="1"/>
 <rect style="fill:#E1D4B6" width="16" height="8" x="4" y="7" rx="1" ry="1"/>
 <rect style="fill:#d3869b" width="20" height="10" x="2" y="11" rx="1" ry="1"/>
 <path style="opacity:0.1;fill:#E1D4B6" d="M 3,3 C 2.446,3 2,3.446 2,4 V 4.5 C 2,3.946 2.446,3.5 3,3.5 H 8.5 C 10,3.5 10.5,5.5 12,5.5 H 21 C 21.554,5.5 22,5.946 22,6.5 V 6 C 22,5.446 21.554,5 21,5 H 12 C 10.5,5 10,3 8.5,3 Z"/>
 <path style="fill:#393534" d="M 12,13 A 2,2 0 0 0 9.9999,15 2,2 0 0 0 12,17 2,2 0 0 0 14,15 2,2 0 0 0 12,13 Z M 10.307,17.062 C 9.0431,17.278 8.1267,17.714 8.0116,18.236 8.0099,18.242 8.0128,18.249 8.0116,18.254 8.0076,18.274 8.0075,18.292 8.0058,18.312 8.0052,18.322 7.9999,18.328 7.9999,18.338 7.9998,18.341 7.9999,18.341 7.9999,18.344 V 19.732 C 7.9999,19.881 8.0883,20 8.1991,20 H 15.801 C 15.912,20 16,19.881 16,19.732 V 18.328 C 15.999,18.296 15.988,18.268 15.98,18.236 15.865,17.715 14.951,17.278 13.691,17.062 A 2,2 0 0 1 12,18 2,2 0 0 1 10.307,17.062 Z"/>
</svg>
